X:9
T:Dave "Normaway' MacDonald's Wedding
R:reel
C:Jerry Holland
O:20th Century Cape Breton
S:Tune of the Month. October,1998.
D:Fiddler's Choice, Odyssey Records,1999, Fiddler's Magazine Video
A:<http://www.jerryholland.com>
N:Contacts ...
N:..... Jerry Holland <jerry@cranfordpub.com>
N:Tune books, related recordings
N:..... Cranford Publications <http://www.cranfordpub.com>
H:Copyrights - www.fiddlesticksmusic.com (SOCAN)
Z:Paul Stewart Cranford <psc@cranfordpub.com>
Q:333
L:1/8
M:C|
K:Gmix
"G modal (mixolydian and dorian)"
z|dG G/G/G dGBd|cF F/F/F cFAc|dG G/G/G dGBd|cfeg fdcf|!
dG G/G/G dGBd|cF F/F/F cFAc|d2 cA GcAG|FDCF DG,G,:|!
|:a|gd d/d/d g_bag|fccd fgaf|gd d/d/d g_bag|cdfg agga|!
gd d/d/d fc c/c/c|dG G/G/G cFAc|d2 cA GcAG|FDCF DG,G,:|!
